icons/mobile/24/svg/avatar-info-circle-fill-24.svg

<svg width="24" height="24" viewBox="0 0 24 24" fill="none" xmlns="http://www.w3.org/2000/svg">
<path fill-rule="evenodd" clip-rule="evenodd" d="M18.75 14C21.507 14 23.75 16.243 23.75 19C23.75 21.757 21.507 24 18.75 24C15.993 24 13.75 21.757 13.75 19C13.75 16.243 15.993 14 18.75 14ZM18.75 18.75C18.3358 18.75 18 19.0858 18 19.5V21.25C18 21.6642 18.3358 22 18.75 22C19.1642 22 19.5 21.6642 19.5 21.25V19.5C19.5 19.0858 19.1642 18.75 18.75 18.75ZM18.75 16C18.3358 16 18 16.3358 18 16.75C18 17.1642 18.3358 17.5 18.75 17.5C19.1642 17.5 19.5 17.1642 19.5 16.75C19.5 16.3358 19.1642 16 18.75 16Z" fill="black"/>
<path fill-rule="evenodd" clip-rule="evenodd" d="M10.999 1.00098C16.522 1.00099 20.999 5.478 20.999 11.001C20.999 11.6319 20.9342 12.2468 20.8223 12.8457C20.1703 12.6257 19.474 12.501 18.749 12.501C17.7122 12.501 16.7352 12.7507 15.8643 13.1846C15.4973 12.8206 15.0235 12.5633 14.4775 12.4883C13.4367 12.3463 12.2698 12.251 10.999 12.251C9.72802 12.251 8.56153 12.3453 7.51953 12.4883C6.72575 12.5974 6.07009 13.0765 5.70117 13.7354C5.48438 14.1232 5.535 14.6217 5.80469 14.9746C7.00269 16.5426 8.879 17.5635 11 17.5635C11.502 17.5635 11.99 17.5006 12.459 17.3926C12.328 17.9076 12.25 18.444 12.25 19C12.25 19.65 12.3483 20.2781 12.5273 20.8711C12.0283 20.9481 11.521 21 11 21C5.477 21 1 16.523 1 11C1 5.477 5.477 1 11 1L10.999 1.00098ZM11 5.5C9.403 5.5 8.15494 6.99802 8.58594 8.66602C8.80294 9.50802 9.49198 10.1971 10.334 10.4141C12.002 10.8451 13.5 9.597 13.5 8C13.5 6.619 12.381 5.5 11 5.5Z" fill="black"/>
</svg>

<!-- This Source Code Form is subject to the terms of the Mozilla Public
   - License, v. 2.0. If a copy of the MPL was not distributed with this
   - file, You can obtain one at http://mozilla.org/MPL/2.0/. -->
<svg xmlns="http://www.w3.org/2000/svg" width="24" height="24" fill="none" viewBox="0 0 24 24">
    <path fill="#000" fill-rule="evenodd" d="M18.75 14c2.757 0 5 2.243 5 5s-2.243 5-5 5-5-2.243-5-5 2.243-5 5-5m0 4.75a.75.75 0 0 0-.75.75v1.75a.75.75 0 0 0 1.5 0V19.5a.75.75 0 0 0-.75-.75m0-2.75a.75.75 0 1 0 0 1.5.75.75 0 0 0 0-1.5" clip-rule="evenodd" />
    <path fill="#000" fill-rule="evenodd" d="M10.999 1.001c5.523 0 10 4.477 10 10 0 .63-.065 1.246-.177 1.845a6.5 6.5 0 0 0-2.073-.345c-1.037 0-2.014.25-2.885.684a2.43 2.43 0 0 0-1.387-.697 25.7 25.7 0 0 0-6.957 0c-.794.11-1.45.588-1.819 1.247-.217.388-.166.887.104 1.24 1.198 1.568 3.074 2.589 5.195 2.589.502 0 .99-.063 1.459-.171A6.5 6.5 0 0 0 12.25 19c0 .65.098 1.278.277 1.871A10 10 0 0 1 11 21C5.477 21 1 16.523 1 11S5.477 1 11 1zM11 5.5a2.505 2.505 0 0 0-2.414 3.166 2.47 2.47 0 0 0 1.748 1.748A2.505 2.505 0 0 0 13.5 8 2.5 2.5 0 0 0 11 5.5" clip-rule="evenodd" />
</svg>
